X:1
T:O Brother, Life’s Journey Beginning
T:Ira David Sankey, 1887
T:O Brother, Life’s Journey Beginning
T:Public Domain
T:Public Domain
T:Public Domain
C:Ira David Sankey, 1887
Z:Public Domain
%%score ( 1 2 ) ( 3 4 )
L:1/8
M:6/4
K:Bb
V:1 treble 
V:2 treble 
V:3 bass 
V:4 bass 
V:1
 [DF]2 | [DF]2 [B,D]2 [CE]2 [DF]2 [EG]2 [EA]2 | [DB]6 [DF]4 [DF]2 | %3
w: 1.~O|bro- ther, life’s jour- ney be-|gin- ning, With|
w: 2.~O|bro- ther, yield not to the|tempt- er, No|
w: 3.~O|bro- ther, the Sav- ior is|call- ing! Be-|
 [EG]2 [EA]2 [DB]2 [Ec]2 [EB]2 [EG]2 | [DF]6- [DF]4 [DF]2 | [DF]2 [B,D]2 [CE]2 [DF]2 [EG]2 [EA]2 | %6
w: cour- age and firm- ness a-|rise! * Look|well to the course thou art|
w: mat- ter what o- thers may|do; * Stand|firm in the strength of the|
w: ware of the dan- ger of|sin; * Re-|sist not the voice of the|
 [DB]6 [DF]4 [FB]2 | [FA]2 [FA]2 [FA]2 [=Ec]2 [EB]2 [EG]2 | F6- F4 F2 | %9
w: choos- ing; Be|ear- nest, be watch- ful, and|wise! * Re-|
w: Mas- ter, Be|loy- al, be faith- ful, and|true! * Each|
w: Spir- it, That|whis- pers so gent- ly with-|in. * God|
 F2 [FA]2 [Fc]2 [Fe]2 [Fd]2 [Fc]2 | [Fd]2 [DB]6 z2 F2 | F2 [FA]2 [Fc]2 [Fe]2 [Fd]2 [Fc]2 | %12
w: two paths are be- fore thee,|both thy at-|tion in- vite; But one lead-|
w: will make you the strong- er,|you, in the|of the Lord, Fight man- ful-|
w: to en- ter His ser- vice—|live for Him|day by day; And share by|
 [Fd]6- [Fd]4 [Fd]2 | [Fd]4 [Fd][Fd] [FB]2 [Fc]2 [_Ad]2 | [Gf]2 [Ge]6 z2 [EG]2 | %15
w: on * to|de- struct- ion, The o- ther|to joy and|
w: un- * der|your Lead- er, O- bey- ing|the voice of|
w: by * in|the glo- ry That ne- ver|shall van- ish|
 [DF] [FB]3 [DB]2 [DB]3 [Ec] [CA]2 | [DB]6- [DB]4 ||"^Refrain" [Fd]2 | %18
w: de- light. * * * *|||
w: His Word. * * * *|||
w: a- way. * * * *|||
 [Fd] [Fd]3 [Fd]2 [FB] [FB]3 [Gc]2 | [FB]2 [FA]6 z2 [Fe]2 | [Fe] [Fe]3 [Fe]2 [Fe]2 [Fd]2 [Fc]2 | %21
w: |||
w: |||
w: |||
 [Fd]6- [Fd]4 [DF]2 | [DB]3 [DB] [DB]2 [Fd] [Fd]3 [_Af]2 | [Gf]2 [Ge]6 z2 [EG]2 | %24
w: |||
w: |||
w: |||
 [EG] [FB]3 [FB]2 [DB]3 [Ec] [CA]2 | [DB]6- [DB]4 |] %26
w: ||
w: ||
w: ||
V:2
 x2 | x12 | x12 | x12 | x12 | x12 | x12 | x12 | F6- F4 F2 | F2 x10 | x10 F2 | F2 x10 | x12 | x12 | %14
w: ||||||||mem- * ber—|And|ten-|eth|||
w: ||||||||tri- * al|If|name|ly|||
w: ||||||||calls * you|To|here,|and|||
 x12 | x12 | x10 || x2 | x12 | x12 | x12 | x12 | x12 | x12 | x12 | x10 |] %26
w: ||||||||||||
w: ||||||||||||
w: ||||||||||||
V:3
 [B,,B,]2 | [B,,B,]2 [B,,F,]2 [B,,F,]2 [B,,B,]2 [B,,B,]2 [B,,F,]2 | [B,,F,]6 [B,,B,]4 [B,,B,]2 | %3
w: ~|~ ~ ~ ~ ~ ~|~ ~ ~|
 [B,,B,]2 [B,,F,]2 [B,,F,]2 [E,G,]2 [E,G,]2 [E,B,]2 | [B,,B,]6- [B,,B,]4 [B,,B,]2 | %5
w: ~ ~ ~ ~ ~ ~|~ * ~|
 [B,,B,]2 [B,,F,]2 [B,,F,]2 [B,,B,]2 [B,,B,]2 [B,,F,]2 | [B,,F,]6 [B,,B,]4 [D,B,]2 | %7
w: ~ ~ ~ ~ ~ ~|~ ~ ~|
 [C,C]2 [C,C]2 [C,C]2 [C,G,]2 [C,G,]2 [C,B,]2 | [F,A,]6- [F,A,]4 [F,A,]2 | %9
w: ~ ~ ~ ~ ~ ~|~ * ~|
 [F,A,]2 [F,C]2 [F,A,]2 [F,C]2 [F,B,]2 [F,A,]2 | [B,,B,]2 [B,,F,]6 z2 [D,B,]2 | %11
w: ~ ~ ~ ~ ~ ~|~ ~ ~|
 [F,A,]2 [F,C]2 [F,A,]2 [F,C]2 [F,B,]2 [F,A,]2 | B,6- B,4 B,2 | B,4 B,B, [D,B,]2 [F,A,]2 B,2 | %14
w: ~ ~ ~ ~ ~ ~|~ * ~|~ ~ ~ ~ ~ ~|
 [E,B,]2 [E,B,]6 z2 [E,B,]2 | [F,B,] [F,D]3 [F,B,]2 F,3 F, F,2 | [B,,F,]6- [B,,F,]4 || [B,,B,]2 | %18
w: ~ ~ ~|~ God help you to fol-|ner, *|And|
 [B,,B,] [B,,B,]3 [B,,B,]2 [D,B,] [D,B,]3 [E,E]2 | [F,D]2 [F,C]6 z2 [F,C]2 | %20
w: serve Him wher- ev- er you|go; And when|
 [F,C] [F,C]3 [F,C]2 [F,C]2 [F,B,]2 [F,A,]2 | [B,,B,]6- [B,,B,]4 [B,,B,]2 | %22
w: you are tempt- ed, my bro-|ther, * God|
 [B,,F,]3 [B,,F,] [B,,F,]2 [B,,B,] [B,,B,]3 [D,B,]2 | [E,B,]2 [E,B,]6 z2 [E,B,]2 | %24
w: give you the grace to say|“No!” * *|
 [F,B,] [F,D]3 [F,D]2 [F,B,]3 [F,A,] F,2 | [B,,F,]6- [B,,F,]4 |] %26
w: ||
V:4
 x2 | x12 | x12 | x12 | x12 | x12 | x12 | x12 | x12 | x12 | x12 | x12 | B,6- B,4 B,2 | %13
w: ||||||||||||~ * ~|
 B,4 B,B, x3 B,2 x | x12 | x6 F,3 F, F,2 | x10 || x2 | x12 | x12 | x12 | x12 | x12 | x12 | %24
w: ~ ~ ~ ~||low His ban-|||||||||
 x10 F,2 | x10 |] %26
w: ||

